!!!COM:	de Orto, Marbrianus
!!!CDT:	~1460///-1529//
!!!OTL:	Descendi in ortum meum
!!!AGN:	Motet
!!!SCT:	Ort2010
!!!SCA:	Ort2010
!!!voices:	4
**kern	**kern	**kern	**kern
*staff4	*staff3	*staff2	*staff1
*Ivox	*Ivox	*Ivox	*Ivox
*I"Bassus	*I"Tenor	*I"Altus	*I"Superius
*I'B	*I'T	*I'A	*I'S
*>[A,B]	*>[A,B]	*>[A,B]	*>[A,B]
*>A	*>A	*>A	*>A
*clefF4	*clefGv2	*clefGv2	*clefG2
*k[]	*k[]	*k[]	*k[]
*M2/1	*M2/1	*M2/1	*M2/1
*met(C|)	*met(C|)	*met(C|)	*met(C|)
=1-	=1-	=1-	=1-
!!section: Descendi in ortum meum
!!!OMD: Descendi in ortum meum
!	!	!	!LO:TX:Z=8:t=Superius lost
0GG	0r	1G	0ryy
.	.	[1B	.
=2	=2	=2	=2
0BB	1r	2B/]	0ryy
.	.	4A/	.
.	.	4G/	.
.	1D	1d	.
=3	=3	=3	=3
0C	0E	1G	0ryy
.	.	2r	.
.	.	[2c\	.
=4	=4	=4	=4
0D	0F	4c\]	0ryy
.	.	4B/	.
.	.	4A/	.
.	.	4G/	.
.	.	1A	.
=5	=5	=5	=5
0r	0G	4G/	0ryy
.	.	4A/	.
.	.	4B/	.
.	.	4c\	.
.	.	2d\	.
.	.	[2e\	.
=6	=6	=6	=6
0GG	0r	2e\]	0ryy
.	.	1d	.
.	.	[2g\	.
=7	=7	=7	=7
0AA	0r	4g\]	0ryy
.	.	4f\	.
.	.	4e\	.
.	.	4d\	.
.	.	1e	.
=8	=8	=8	=8
0BB	0r	1d	0ryy
.	.	1r	.
=9	=9	=9	=9
0D	1r	1.f	0ryy
.	1A	.	.
.	.	4e\	.
.	.	4d\	.
=10	=10	=10	=10
0AA	0c	2c\	0ryy
.	.	2d\	.
.	.	1e	.
=11	=11	=11	=11
0E	0G	0g	0ryy
=12	=12	=12	=12
0G	1r	0d	0ryy
.	1G	.	.
=13	=13	=13	=13
1D	1A	1f	0ryy
1BB	2B/	2d\	.
.	[2d\	[2f\	.
=14	=14	=14	=14
0D	4d\]	2f\]	0ryy
.	4c\	.	.
.	2A/	4e\	.
.	.	4d\	.
.	1d	1f	.
=15	=15	=15	=15
1AA	2c\	0e	0ryy
.	1A	.	.
2r	.	.	.
[2C/	4G/	.	.
.	4F/	.	.
=16	=16	=16	=16
2C/]	2E/	1r	0ryy
2BB/	2D/	.	.
2AA/	1E	2r	.
2C/	.	2c\	.
=17	=17	=17	=17
2GG/	2.D/	2d\	0ryy
2.D/	.	2.f\	.
.	4E/	.	.
.	4F/	.	.
4E\	4G/	4e\	.
4F\	4A/	2c\	.
4G\	4B/	.	.
=18	=18	=18	=18
2A\	2c\	2r	0ryy
2B\	1d	[1.f	.
2A\	.	.	.
[2F\	2c\	.	.
=19	=19	=19	=19
2F\]	2d\	2f\]	0ryy
2G\	2B/	1d	.
1D	1A	.	.
.	.	2d\	.
=20	=20	=20	=20
1GG	1G	1B	0ryy
1r	1r	1r	.
=21	=21	=21	=21
1G	0d	1B	0ryy
2D/	.	2A/	.
2G\	.	2B/	.
=22	=22	=22	=22
4F\	0d	1A	0ryy
4E\	.	.	.
4D/	.	.	.
4C/	.	.	.
1BB	.	1B	.
=23	=23	=23	=23
0C	[0e	2G/	0ryy
.	.	2.E/	.
.	.	4C/	.
.	.	2c\	.
=24	=24	=24	=24
1E	0e]	1B	0ryy
2AA/	.	2.c\	.
[2C/	.	.	.
.	.	4B/	.
=25	=25	=25	=25
4C/]	[0e	4A/	0ryy
4BB/	.	4G/	.
4AA/	.	2A/	.
4GG/	.	.	.
1AA	.	2E/	.
.	.	2A/	.
=26	=26	=26	=26
0E	0e]	1G	0ryy
.	.	[1g	.
=27	=27	=27	=27
1G	0d	1g]	0ryy
1GG	.	2r	.
.	.	[2G/	.
=28	=28	=28	=28
1AA	1c	2G/]	0ryy
.	.	2F#i/	.
4GG/	1B	1G	.
4AA/	.	.	.
4BB/	.	.	.
4C/	.	.	.
=29	=29	=29	=29
4D/	2.A/	0r	0ryy
4E\	.	.	.
1F	.	.	.
.	4B/	.	.
.	4c\	.	.
.	4d\	.	.
2G\	2B/	.	.
=30	=30	=30	=30
4F\	2A/	0r	0ryy
4E\	.	.	.
4D/	2c\	.	.
4C/	.	.	.
1D	2B/	.	.
.	[2A/	.	.
=31	=31	=31	=31
1GG	2A/]	0r	0ryy
.	1G	.	.
1AA	.	.	.
.	2F#i/	.	.
=32	=32	=32	=32
[0GG	[0G	2.B/	0ryy
.	.	4c\	.
.	.	4d\	.
.	.	4e\	.
.	.	[2d\	.
=33	=33	=33	=33
0GG]	0G_	2d\]	0ryy
.	.	1g	.
.	.	4f\	.
.	.	4e\	.
=34	=34	=34	=34
1r	0G]	2d\	0ryy
.	.	2d\	.
[1C	.	[1c	.
=35	=35	=35	=35
1C]	0r	1c]	0ryy
1D	.	1A	.
=36	=36	=36	=36
1C	0r	1c	0ryy
[1F	.	2c\	.
.	.	2c\	.
=37	=37	=37	=37
2F\]	1A	1c	0ryy
2F\	.	.	.
1F	1A	1f	.
=38	=38	=38	=38
1.A	1.c	1e	0ryy
.	.	[1a	.
2G\	2c\	.	.
=39	=39	=39	=39
2F\	1c	2a\]	0ryy
2E\	.	1.g	.
1C	1r	.	.
=40	=40	=40	=40
1F	1c	1f	0ryy
[1E	1c	2g\	.
.	.	[2e\	.
=41	=41	=41	=41
2E\]	1B	2e\]	0ryy
2G\	.	4d\	.
.	.	4e\	.
1D	1A	4f\	.
.	.	4g\	.
.	.	[2a\	.
=42	=42	=42	=42
1G	1B	2a\]	0ryy
.	.	1g	.
1A	1c	.	.
.	.	2f#i\	.
=43	=43	=43	=43
0G	0d	0g	0ryy
=44	=44	=44	=44
1r	1c	2e\	0ryy
.	.	2.g\	.
1C	1c	.	.
.	.	4f\	.
.	.	2e\	.
=45	=45	=45	=45
2BB/	1r	2d\	0ryy
2C/	.	1c	.
1D	1F	.	.
.	.	2B/	.
=46	=46	=46	=46
1C	1E	2c\	0ryy
.	.	1e	.
1AA	1F	.	.
.	.	4d\	.
.	.	4c\	.
=47	=47	=47	=47
1GG	1G	2d\	0ryy
.	.	1e	.
1AA	1C	.	.
.	.	4d\	.
.	.	4c\	.
=48	=48	=48	=48
2GG/	1r	1B	0ryy
1G	.	.	.
.	1c	1A	.
2F\	.	.	.
=49	=49	=49	=49
2G\	2B/	1G	0ryy
1C	2c\	.	.
.	1d	1r	.
2BB/	.	.	.
=50	=50	=50	=50
2C/	2c\	2r	0ryy
2D/	1A	1d	.
1E	.	.	.
.	2G/	2c\	.
=51	=51	=51	=51
1D	2A/	1d	0ryy
.	2B/	.	.
1AA	1c	2r	.
.	.	2c\	.
=52	=52	=52	=52
1GG	1B	2d\	0ryy
.	.	2d\	.
2r	1E	2e\	.
2G\	.	2B/	.
=53	=53	=53	=53
2F\	2r	1c	0ryy
2E\	2E/	.	.
2D/	2F/	2r	.
2BB/	2G/	2d\	.
=54	=54	=54	=54
2AA/	2A/	2e\	0ryy
1E	2G/	1g	.
.	2B/	.	.
2E\	2c\	4f\	.
.	.	4e\	.
=55	=55	=55	=55
1D	1d	1f	0ryy
2C/	2e\	[1g	.
[2G\	2d\	.	.
=56	=56	=56	=56
2G\]	2B/	2g\]	0ryy
2C/	2c\	2e\	.
1D	1A	[1dl	.
=57	=57	=57	=57
0GGl	0Gl	0d]	0ryy
!!LO:LB:i:g=z
=58||	=58||	=58||	=58||
*>B	*>B	*>B	*>B
*clefF4	*clefGv2	*clefGv2	*clefG2
*k[]	*k[]	*k[]	*k[]
*M2/1	*M2/1	*M2/1	*M2/1
*met(C|)	*met(C|)	*met(C|)	*met(C|)
!!section: Revertere ut intueamur te
!!!OMD: Revertere ut intueamur te
1D	0r	0r	0ryy
1D	.	.	.
=59	=59	=59	=59
1E	0r	0r	0ryy
[1G	.	.	.
=60	=60	=60	=60
2G\]	1A	0r	0ryy
4F#i\	.	.	.
4E\	.	.	.
1F#i	1A	.	.
=61	=61	=61	=61
1G	1B	1d	0ryy
1G	[1d	1d	.
=62	=62	=62	=62
1E	2d\]	1e	0ryy
.	4c\	.	.
.	4B/	.	.
1E	1c	[1g	.
=63	=63	=63	=63
0D	1d	2g\]	0ryy
.	.	4f#i\	.
.	.	4e\	.
.	1d	1f#i	.
=64	=64	=64	=64
0GG	1d	1g	0ryy
.	1B	1g	.
=65	=65	=65	=65
0AA	0A	1e	0ryy
.	.	1e	.
=66	=66	=66	=66
0BB	2.D/	0d	0ryy
.	4E/	.	.
.	2F/	.	.
.	2G/	.	.
=67	=67	=67	=67
1AA	1A	0e	0ryy
1r	1G	.	.
=68	=68	=68	=68
0r	2.F/	1f	0ryy
.	4G/	.	.
.	1A	1e	.
=69	=69	=69	=69
0r	0r	2d\	0ryy
.	.	2.g\	.
.	.	4f\	.
.	.	4e\	.
.	.	4d\	.
=70	=70	=70	=70
0r	1r	2c\	0ryy
.	.	1d	.
.	2A/	.	.
.	2A/	2c\	.
=71	=71	=71	=71
1G	2B/	1d	0ryy
.	2.d\	.	.
1G	.	1r	.
.	4c\	.	.
.	[2B/	.	.
=72	=72	=72	=72
1E	2B/]	0r	0ryy
.	4A/	.	.
.	4G/	.	.
1D	2B/	.	.
.	[2A/	.	.
=73	=73	=73	=73
1E	2A/]	0r	0ryy
.	2G/	.	.
1F	2A/	.	.
.	[2c\	.	.
=74	=74	=74	=74
1E	4c\]	1r	0ryy
.	4B/	.	.
.	2.G/	.	.
2BB/	.	1d	.
.	4F/	.	.
[2D/	2B-i/	.	.
=75	=75	=75	=75
2D/]	2A/	1d	0ryy
4C/	1G	.	.
4BB/	.	.	.
1AA	.	1c	.
.	2F#i/	.	.
=76	=76	=76	=76
1GG	1G	1.B	0ryy
2r	1r	.	.
[2G\	.	4A/	.
.	.	4G/	.
=77	=77	=77	=77
4G\]	0r	1A	0ryy
4F\	.	.	.
4F\	.	.	.
4E\	.	.	.
1G	.	4G/	.
.	.	4A/	.
.	.	4B/	.
.	.	4c\	.
=78	=78	=78	=78
0r	0r	2d\	0ryy
.	.	1e	.
.	.	4d\	.
.	.	4c\	.
=79	=79	=79	=79
0r	1r	2f\	0ryy
.	.	1g	.
.	1d	.	.
.	.	2f#i\	.
=80	=80	=80	=80
1G	2.d\	1g	0ryy
.	4c\	.	.
1G	1B	1d	.
=81	=81	=81	=81
1F	1d	1f	0ryy
[1E	[1e	[1g	.
=82	=82	=82	=82
1E]	1e]	1g]	0ryy
1F	2c\	2.f\	.
.	4d\	.	.
.	4c\	4e\	.
=83	=83	=83	=83
2G\	4B/	2.d\	0ryy
.	4A/	.	.
4F\	1G	.	.
4E\	.	4c\	.
2D/	.	4c\	.
.	.	4B/	.
2D/	2F/	4B/	.
.	.	4A/	.
=84	=84	=84	=84
1C	2G/	1c	0ryy
.	1c	.	.
[1F	.	2r	.
.	4B/	2c\	.
.	4A/	.	.
=85	=85	=85	=85
2F\]	1d	1A	0ryy
4E\	.	.	.
4D/	.	.	.
2A\	2c\	2r	.
2G\	4C/	2E/	.
.	4D/	.	.
=86	=86	=86	=86
2.C/	4E/	1G	0ryy
.	4F/	.	.
.	2G/	.	.
4BB/	.	.	.
2AA/	2A/	2F/	.
2GG/	2B/	2G/	.
=87	=87	=87	=87
1AA	1A	1c	0ryy
2D/	2r	2d\	.
2E\	[2c\	2G/	.
=88	=88	=88	=88
2F\	4c\]	2c\	0ryy
.	4d\	.	.
2G\	1e	2B/	.
1A	.	4c\	.
.	.	4d\	.
.	4d\	4e\	.
.	4c\	4f\	.
=89	=89	=89	=89
2.G\	2d\	0g	0ryy
.	2e\	.	.
4E\	.	.	.
1E	2r	.	.
.	2E/	.	.
=90	=90	=90	=90
2r	2F/	2f\	0ryy
2.E\	2G/	2e\	.
.	1E	4g\	.
4D/	.	4f\	.
4C/	.	4e\	.
4BB/	.	4d\	.
=91	=91	=91	=91
2AA/	2F/	1c	0ryy
2E\	2G/	.	.
1D	1A	1d	.
=92	=92	=92	=92
1GG	2G/	2r	0ryy
.	2.d\	2G/	.
2.D/	.	1F	.
.	4c\	.	.
.	4B/	.	.
4C/	4A/	.	.
=93	=93	=93	=93
4BB/	2B/	1G	0ryy
4AA/	.	.	.
2GG/	2.E/	.	.
2AA/	.	2r	.
.	4F/	.	.
[2GG/	4G/	[2d\	.
.	4A/	.	.
=94	=94	=94	=94
2GG/]	2B/	2d\]	0ryy
2AA/	2c\	2c\	.
1BB	1d	2B/	.
.	.	[2d\	.
=95	=95	=95	=95
1E	1G	2d\]	0ryy
.	.	2c\	.
1D	1A	[1dl	.
=96	=96	=96	=96
0GGl	0Gl	0d]	0ryy
==	==	==	==
*-	*-	*-	*-
!!!RDF**kern: l=long note in original notation
!!!RDF**kern: V=start of tuplet marker
!!!RDF**kern: Z=end of tuplet marker
!!!RDF**kern: i=editorial accidental
!!!SMS:	VienNB 15941
!!!ENC:	David Burn
!!!END:	2012///
!!!EED:	Jesse Rodin
!!!EED:	David Burn (Leuven U.)
!!!EEV:	2013/05/03/
!!!ONB:	Translated from MusicXML and edited on 2013/05/03/ by Craig Sapp
!!muse2ps: C^@{COM}^i2I150v85,85,85,150Q16
